assets/skill/herr-illustrator.svg

<svg width="57" height="58" viewBox="0 0 57 58" fill="none" xmlns="http://www.w3.org/2000/svg">
<rect x="0.124268" y="0.751465" width="56.7516" height="56.7516" rx="8.25478" fill="url(#paint0_linear_267_5479)"/>
<path d="M7.16187 8.36792H49.8445V49.8865H7.16187V8.36792Z" fill="#1C0A00"/>
<path d="M7.16207 8.36797H49.8447V49.8865H7.16207V8.36797ZM5.21802 51.8272H51.7821V6.42725H5.21802V51.8272ZM35.7175 22.6083C35.7175 22.4536 35.7757 22.3755 35.9503 22.3755H38.9969C39.1516 22.3755 39.2298 22.4337 39.2298 22.6083V37.9162C39.2298 38.0709 39.1915 38.149 38.9969 38.149H35.9919C35.7973 38.149 35.7391 38.0526 35.7391 37.8963V22.6083H35.7175ZM35.5046 18.2046C35.5046 17.6798 35.7131 17.1764 36.0843 16.8053C36.4554 16.4342 36.9588 16.2257 37.4836 16.2257C38.0085 16.2257 38.5118 16.4342 38.883 16.8053C39.2541 17.1764 39.4626 17.6798 39.4626 18.2046C39.4818 18.4728 39.4424 18.7418 39.3473 18.9932C39.2522 19.2446 39.1035 19.4724 38.9116 19.6606C38.7197 19.8489 38.4892 19.9931 38.236 20.0834C37.9829 20.1737 37.7131 20.2079 37.4454 20.1836C37.1831 20.2001 36.9203 20.1598 36.675 20.0656C36.4297 19.9714 36.2075 19.8254 36.0237 19.6376C35.8398 19.4498 35.6986 19.2246 35.6096 18.9773C35.5206 18.7301 35.486 18.4665 35.508 18.2046H35.5046ZM26.7739 28.9925C26.2301 26.8306 24.9446 22.1443 24.4656 19.8743H24.4274C24.0199 22.1443 22.9922 25.9858 22.1773 28.9925H26.7739ZM21.3808 32.1356L19.8475 37.9561C19.8092 38.1108 19.751 38.1507 19.5564 38.1507H16.7077C16.5131 38.1507 16.4749 38.0925 16.5131 37.8597L22.0227 18.5688C22.1568 18.0429 22.2222 17.5018 22.2172 16.959C22.2172 16.8227 22.2754 16.7645 22.3719 16.7645H26.4463C26.5826 16.7645 26.6408 16.8027 26.6791 16.959L32.8488 37.8929C32.8871 38.0476 32.8488 38.1457 32.6942 38.1457H29.4729C29.3183 38.1457 29.2201 38.1075 29.1819 37.9794L27.5904 32.1389H21.3824L21.3808 32.1356Z" fill="#FF7F18"/>
<defs>
<linearGradient id="paint0_linear_267_5479" x1="28.5001" y1="0.751465" x2="28.5001" y2="57.5031" gradientUnits="userSpaceOnUse">
<stop stop-color="#FDFDFD"/>
<stop offset="1" stop-color="#F5F4F4"/>
</linearGradient>
</defs>
</svg>

<svg xmlns="http://www.w3.org/2000/svg" width="57" height="58" fill="none" viewBox="0 0 57 58"><rect width="56.752" height="56.752" x=".124" y=".751" fill="url(#paint0_linear_267_5479)" rx="8.255"/><path fill="#1c0a00" d="M7.162 8.368h42.683v41.519H7.161z"/><path fill="#ff7f18" d="M7.162 8.368h42.683v41.518H7.162zm-1.944 43.46h46.564v-45.4H5.218zm30.5-29.22c0-.154.058-.233.232-.233h3.047c.155 0 .233.059.233.233v15.308c0 .155-.038.233-.233.233h-3.005c-.195 0-.253-.096-.253-.253V22.608zm-.213-4.403a1.979 1.979 0 1 1 3.958 0 1.854 1.854 0 0 1-2.018 1.979 1.83 1.83 0 0 1-1.937-1.98zm-8.731 10.788c-.544-2.162-1.83-6.849-2.308-9.119h-.039c-.407 2.27-1.435 6.112-2.25 9.119zm-5.393 3.143-1.533 5.82c-.039.155-.097.195-.292.195h-2.848c-.195 0-.233-.059-.195-.291l5.51-19.291c.134-.526.2-1.067.194-1.61 0-.136.058-.194.155-.194h4.074c.137 0 .195.038.233.194l6.17 20.934c.038.155 0 .253-.155.253h-3.221c-.155 0-.253-.038-.291-.167l-1.592-5.84h-6.208z"/><defs><linearGradient id="paint0_linear_267_5479" x1="28.5" x2="28.5" y1=".751" y2="57.503" gradientUnits="userSpaceOnUse"><stop stop-color="#fdfdfd"/><stop offset="1" stop-color="#f5f4f4"/></linearGradient></defs></svg>
